dist/img/icon_3_new.svg

<svg width="100" height="60" viewBox="0 0 100 60" fill="none" xmlns="http://www.w3.org/2000/svg">
<g clip-path="url(#clip0)">
<g filter="url(#filter0_d)">
<circle cx="58.5" cy="29.5" r="14.5" fill="url(#paint0_linear)"/>
</g>
<g filter="url(#filter1_bdi)">
<path d="M82 29.5C82 20.0974 76.478 11.9846 68.5 8.22769M58.5 6C53.6416 6 49.1276 7.47433 45.3809 10M78.5 41.8452C74.3589 48.5398 66.9503 53 58.5 53C55.1185 53 51.9039 52.2858 48.9986 51" stroke="#FF123D" stroke-width="2.5" stroke-linecap="round" stroke-linejoin="round"/>
</g>
<g filter="url(#filter2_bdi)">
<path d="M32.9952 11.5953L20.9841 16.7429C19.1937 17.4889 18 19.2794 18 21.2191V34.4985C18 38.6016 19.4921 42.481 22.1778 45.5397C23.3714 46.8826 25.0127 48.0762 27.027 49.1953L32.6222 52.1048C34.0397 52.8508 35.7556 52.8508 37.173 52.1048L42.6936 49.1953C44.4841 48.3 45.9016 47.2556 47.0952 46.062L47.5429 45.5397C50.2286 42.481 51.7206 38.6016 51.7206 34.5731V21.2937C51.7206 19.354 50.527 17.5635 48.7365 16.8175L36.8746 11.5953C35.6063 11.0731 34.2635 11.0731 32.9952 11.5953Z" fill="#98B5FF" fill-opacity="0.6"/>
</g>
<g filter="url(#filter3_f)">
<path fill-rule="evenodd" clip-rule="evenodd" d="M20.9841 16.7429C19.1937 17.4889 18 19.2794 18 21.2191V34.4985C18 38.6016 19.4921 42.481 22.1778 45.5397C23.3714 46.8826 25.0127 48.0762 27.027 49.1953L32.6222 52.1048C34.0397 52.8508 35.7556 52.8508 37.173 52.1048L42.6936 49.1953C44.4841 48.3 45.9016 47.2556 47.0952 46.062L47.5429 45.5397C50.2286 42.481 51.7206 38.6016 51.7206 34.5731V21.2937C51.7206 19.354 50.527 17.5635 48.7365 16.8175L36.8746 11.5953C35.6063 11.0731 34.2635 11.0731 32.9952 11.5953L20.9841 16.7429ZM33.5755 12.9785L21.568 18.1246L21.561 18.1275C20.3295 18.6406 19.5 19.885 19.5 21.2191V34.4985C19.5 38.2298 20.8544 41.7575 23.3019 44.5466C24.3388 45.7119 25.8153 46.8045 27.7375 47.8741L33.3209 50.7774C34.301 51.2933 35.4942 51.2933 36.4744 50.7774L42.0085 47.8608L42.0228 47.8536C43.6522 47.039 44.9259 46.1017 45.9948 45.041L46.4098 44.5567L46.4157 44.55C48.8675 41.7577 50.2206 38.2278 50.2206 34.5731V21.2937C50.2206 19.9596 49.3911 18.7152 48.1596 18.2021L48.1458 18.1964L36.2881 12.976C35.3935 12.612 34.4699 12.6128 33.5755 12.9785Z" fill="#FFDFF4" fill-opacity="0.2"/>
</g>
<g filter="url(#filter4_bdi)">
<path fill-rule="evenodd" clip-rule="evenodd" d="M35 24C35.5523 24 36 24.4477 36 25L36 37C36 37.5523 35.5523 38 35 38C34.4477 38 34 37.5523 34 37L34 25C34 24.4477 34.4477 24 35 24Z" fill="#98B5FF" fill-opacity="0.6"/>
</g>
<g filter="url(#filter5_bdi)">
<path fill-rule="evenodd" clip-rule="evenodd" d="M28 31C28 30.4477 28.4477 30 29 30H41C41.5523 30 42 30.4477 42 31C42 31.5523 41.5523 32 41 32H29C28.4477 32 28 31.5523 28 31Z" fill="#98B5FF" fill-opacity="0.6"/>
</g>
</g>
<defs>
<filter id="filter0_d" x="34" y="5" width="49" height="49" filterUnits="userSpaceOnUse" color-interpolation-filters="sRGB">
<feFlood flood-opacity="0" result="BackgroundImageFix"/>
<feColorMatrix in="SourceAlpha" type="matrix" values="0 0 0 0 0 0 0 0 0 0 0 0 0 0 0 0 0 0 127 0"/>
<feOffset/>
<feGaussianBlur stdDeviation="5"/>
<feColorMatrix type="matrix" values="0 0 0 0 0.00833333 0 0 0 0 0.762 0 0 0 0 1 0 0 0 0.5 0"/>
<feBlend mode="normal" in2="BackgroundImageFix" result="effect1_dropShadow"/>
<feBlend mode="normal" in="SourceGraphic" in2="effect1_dropShadow" result="shape"/>
</filter>
<filter id="filter1_bdi" x="34.1306" y="-5.25" width="59.1193" height="69.5" filterUnits="userSpaceOnUse" color-interpolation-filters="sRGB">
<feFlood flood-opacity="0" result="BackgroundImageFix"/>
<feGaussianBlur in="BackgroundImage" stdDeviation="5"/>
<feComposite in2="SourceAlpha" operator="in" result="effect1_backgroundBlur"/>
<feColorMatrix in="SourceAlpha" type="matrix" values="0 0 0 0 0 0 0 0 0 0 0 0 0 0 0 0 0 0 127 0"/>
<feOffset dy="-2"/>
<feGaussianBlur stdDeviation="4"/>
<feColorMatrix type="matrix" values="0 0 0 0 0 0 0 0 0 0 0 0 0 0 0 0 0 0 0.1 0"/>
<feBlend mode="normal" in2="effect1_backgroundBlur" result="effect2_dropShadow"/>
<feBlend mode="normal" in="SourceGraphic" in2="effect2_dropShadow" result="shape"/>
<feColorMatrix in="SourceAlpha" type="matrix" values="0 0 0 0 0 0 0 0 0 0 0 0 0 0 0 0 0 0 127 0" result="hardAlpha"/>
<feOffset dy="-2"/>
<feGaussianBlur stdDeviation="3.5"/>
<feComposite in2="hardAlpha" operator="arithmetic" k2="-1" k3="1"/>
<feColorMatrix type="matrix" values="0 0 0 0 1 0 0 0 0 1 0 0 0 0 1 0 0 0 0.3 0"/>
<feBlend mode="normal" in2="shape" result="effect3_innerShadow"/>
</filter>
<filter id="filter2_bdi" x="8" y="1.20361" width="53.7206" height="61.4607" filterUnits="userSpaceOnUse" color-interpolation-filters="sRGB">
<feFlood flood-opacity="0" result="BackgroundImageFix"/>
<feGaussianBlur in="BackgroundImage" stdDeviation="5"/>
<feComposite in2="SourceAlpha" operator="in" result="effect1_backgroundBlur"/>
<feColorMatrix in="SourceAlpha" type="matrix" values="0 0 0 0 0 0 0 0 0 0 0 0 0 0 0 0 0 0 127 0"/>
<feOffset dy="-2"/>
<feGaussianBlur stdDeviation="4"/>
<feColorMatrix type="matrix" values="0 0 0 0 0 0 0 0 0 0 0 0 0 0 0 0 0 0 0.1 0"/>
<feBlend mode="normal" in2="effect1_backgroundBlur" result="effect2_dropShadow"/>
<feBlend mode="normal" in="SourceGraphic" in2="effect2_dropShadow" result="shape"/>
<feColorMatrix in="SourceAlpha" type="matrix" values="0 0 0 0 0 0 0 0 0 0 0 0 0 0 0 0 0 0 127 0" result="hardAlpha"/>
<feOffset dy="-2"/>
<feGaussianBlur stdDeviation="3.5"/>
<feComposite in2="hardAlpha" operator="arithmetic" k2="-1" k3="1"/>
<feColorMatrix type="matrix" values="0 0 0 0 1 0 0 0 0 1 0 0 0 0 1 0 0 0 0.3 0"/>
<feBlend mode="normal" in2="shape" result="effect3_innerShadow"/>
</filter>
<filter id="filter3_f" x="17" y="10.2036" width="35.7206" height="43.4607" filterUnits="userSpaceOnUse" color-interpolation-filters="sRGB">
<feFlood flood-opacity="0" result="BackgroundImageFix"/>
<feBlend mode="normal" in="SourceGraphic" in2="BackgroundImageFix" result="shape"/>
<feGaussianBlur stdDeviation="0.5" result="effect1_foregroundBlur"/>
</filter>
<filter id="filter4_bdi" x="24" y="14" width="22" height="34" filterUnits="userSpaceOnUse" color-interpolation-filters="sRGB">
<feFlood flood-opacity="0" result="BackgroundImageFix"/>
<feGaussianBlur in="BackgroundImage" stdDeviation="5"/>
<feComposite in2="SourceAlpha" operator="in" result="effect1_backgroundBlur"/>
<feColorMatrix in="SourceAlpha" type="matrix" values="0 0 0 0 0 0 0 0 0 0 0 0 0 0 0 0 0 0 127 0"/>
<feOffset dy="-2"/>
<feGaussianBlur stdDeviation="4"/>
<feColorMatrix type="matrix" values="0 0 0 0 0 0 0 0 0 0 0 0 0 0 0 0 0 0 0.1 0"/>
<feBlend mode="normal" in2="effect1_backgroundBlur" result="effect2_dropShadow"/>
<feBlend mode="normal" in="SourceGraphic" in2="effect2_dropShadow" result="shape"/>
<feColorMatrix in="SourceAlpha" type="matrix" values="0 0 0 0 0 0 0 0 0 0 0 0 0 0 0 0 0 0 127 0" result="hardAlpha"/>
<feOffset dy="-2"/>
<feGaussianBlur stdDeviation="3.5"/>
<feComposite in2="hardAlpha" operator="arithmetic" k2="-1" k3="1"/>
<feColorMatrix type="matrix" values="0 0 0 0 1 0 0 0 0 1 0 0 0 0 1 0 0 0 0.3 0"/>
<feBlend mode="normal" in2="shape" result="effect3_innerShadow"/>
</filter>
<filter id="filter5_bdi" x="18" y="20" width="34" height="22" filterUnits="userSpaceOnUse" color-interpolation-filters="sRGB">
<feFlood flood-opacity="0" result="BackgroundImageFix"/>
<feGaussianBlur in="BackgroundImage" stdDeviation="5"/>
<feComposite in2="SourceAlpha" operator="in" result="effect1_backgroundBlur"/>
<feColorMatrix in="SourceAlpha" type="matrix" values="0 0 0 0 0 0 0 0 0 0 0 0 0 0 0 0 0 0 127 0"/>
<feOffset dy="-2"/>
<feGaussianBlur stdDeviation="4"/>
<feColorMatrix type="matrix" values="0 0 0 0 0 0 0 0 0 0 0 0 0 0 0 0 0 0 0.1 0"/>
<feBlend mode="normal" in2="effect1_backgroundBlur" result="effect2_dropShadow"/>
<feBlend mode="normal" in="SourceGraphic" in2="effect2_dropShadow" result="shape"/>
<feColorMatrix in="SourceAlpha" type="matrix" values="0 0 0 0 0 0 0 0 0 0 0 0 0 0 0 0 0 0 127 0" result="hardAlpha"/>
<feOffset dy="-2"/>
<feGaussianBlur stdDeviation="3.5"/>
<feComposite in2="hardAlpha" operator="arithmetic" k2="-1" k3="1"/>
<feColorMatrix type="matrix" values="0 0 0 0 1 0 0 0 0 1 0 0 0 0 1 0 0 0 0.3 0"/>
<feBlend mode="normal" in2="shape" result="effect3_innerShadow"/>
</filter>
<linearGradient id="paint0_linear" x1="72.6429" y1="29.5" x2="44.7143" y2="29.5" gradientUnits="userSpaceOnUse">
<stop stop-color="#0075FF"/>
<stop offset="1" stop-color="#5AC4FF"/>
</linearGradient>
<clipPath id="clip0">
<rect width="100" height="60" fill="white"/>
</clipPath>
</defs>
</svg>

<svg width="100" height="60" fill="none" xmlns="http://www.w3.org/2000/svg"><g clip-path="url(#clip0)"><g filter="url(#filter0_d)"><circle cx="58.5" cy="29.5" r="14.5" fill="url(#paint0_linear)"/></g><g filter="url(#filter1_bdi)"><path d="M82 29.5c0-9.403-5.522-17.515-13.5-21.272M58.5 6a23.39 23.39 0 00-13.12 4M78.5 41.845C74.359 48.54 66.95 53 58.5 53a23.41 23.41 0 01-9.501-2" stroke="#FF123D" stroke-width="2.5" stroke-linecap="round" stroke-linejoin="round"/></g><g filter="url(#filter2_bdi)"><path d="M32.995 11.595l-12.01 5.148A4.887 4.887 0 0018 21.219V34.5c0 4.103 1.492 7.982 4.178 11.04 1.193 1.344 2.835 2.537 4.849 3.656l5.595 2.91a4.907 4.907 0 004.551 0l5.52-2.91c1.791-.895 3.209-1.94 4.402-3.133l.448-.522c2.686-3.059 4.178-6.938 4.178-10.967v-13.28a4.888 4.888 0 00-2.984-4.476l-11.862-5.222a5 5 0 00-3.88 0z" fill="#98B5FF" fill-opacity=".6"/></g><g filter="url(#filter3_f)"><path fill-rule="evenodd" clip-rule="evenodd" d="M20.984 16.743A4.887 4.887 0 0018 21.219V34.5c0 4.103 1.492 7.982 4.178 11.04 1.193 1.344 2.835 2.537 4.849 3.656l5.595 2.91a4.907 4.907 0 004.551 0l5.52-2.91c1.791-.895 3.209-1.94 4.402-3.133l.448-.522c2.686-3.059 4.178-6.938 4.178-10.967v-13.28a4.888 4.888 0 00-2.984-4.476l-11.862-5.222a5 5 0 00-3.88 0l-12.01 5.148zm12.591-3.764l-12.007 5.146-.007.003a3.387 3.387 0 00-2.061 3.091V34.5c0 3.73 1.354 7.258 3.802 10.048 1.037 1.165 2.513 2.258 4.436 3.327l5.583 2.903c.98.516 2.173.516 3.153 0l5.535-2.916.014-.007c1.63-.815 2.903-1.752 3.972-2.813l.415-.484.006-.007c2.452-2.792 3.805-6.322 3.805-9.977v-13.28c0-1.333-.83-2.578-2.061-3.09l-.014-.007-11.858-5.22a3.498 3.498 0 00-2.712.002z" fill="#FFDFF4" fill-opacity=".2"/></g><g filter="url(#filter4_bdi)"><path fill-rule="evenodd" clip-rule="evenodd" d="M35 24a1 1 0 011 1v12a1 1 0 11-2 0V25a1 1 0 011-1z" fill="#98B5FF" fill-opacity=".6"/></g><g filter="url(#filter5_bdi)"><path fill-rule="evenodd" clip-rule="evenodd" d="M28 31a1 1 0 011-1h12a1 1 0 110 2H29a1 1 0 01-1-1z" fill="#98B5FF" fill-opacity=".6"/></g></g><defs><filter id="filter0_d" x="34" y="5" width="49" height="49" filterUnits="userSpaceOnUse" color-interpolation-filters="sRGB"><feFlood flood-opacity="0" result="BackgroundImageFix"/><feColorMatrix in="SourceAlpha" values="0 0 0 0 0 0 0 0 0 0 0 0 0 0 0 0 0 0 127 0"/><feOffset/><feGaussianBlur stdDeviation="5"/><feColorMatrix values="0 0 0 0 0.00833333 0 0 0 0 0.762 0 0 0 0 1 0 0 0 0.5 0"/><feBlend in2="BackgroundImageFix" result="effect1_dropShadow"/><feBlend in="SourceGraphic" in2="effect1_dropShadow" result="shape"/></filter><filter id="filter1_bdi" x="34.131" y="-5.25" width="59.119" height="69.5" filterUnits="userSpaceOnUse" color-interpolation-filters="sRGB"><feFlood flood-opacity="0" result="BackgroundImageFix"/><feGaussianBlur in="BackgroundImage" stdDeviation="5"/><feComposite in2="SourceAlpha" operator="in" result="effect1_backgroundBlur"/><feColorMatrix in="SourceAlpha" values="0 0 0 0 0 0 0 0 0 0 0 0 0 0 0 0 0 0 127 0"/><feOffset dy="-2"/><feGaussianBlur stdDeviation="4"/><feColorMatrix values="0 0 0 0 0 0 0 0 0 0 0 0 0 0 0 0 0 0 0.1 0"/><feBlend in2="effect1_backgroundBlur" result="effect2_dropShadow"/><feBlend in="SourceGraphic" in2="effect2_dropShadow" result="shape"/><feColorMatrix in="SourceAlpha" values="0 0 0 0 0 0 0 0 0 0 0 0 0 0 0 0 0 0 127 0" result="hardAlpha"/><feOffset dy="-2"/><feGaussianBlur stdDeviation="3.5"/><feComposite in2="hardAlpha" operator="arithmetic" k2="-1" k3="1"/><feColorMatrix values="0 0 0 0 1 0 0 0 0 1 0 0 0 0 1 0 0 0 0.3 0"/><feBlend in2="shape" result="effect3_innerShadow"/></filter><filter id="filter2_bdi" x="8" y="1.204" width="53.721" height="61.461" filterUnits="userSpaceOnUse" color-interpolation-filters="sRGB"><feFlood flood-opacity="0" result="BackgroundImageFix"/><feGaussianBlur in="BackgroundImage" stdDeviation="5"/><feComposite in2="SourceAlpha" operator="in" result="effect1_backgroundBlur"/><feColorMatrix in="SourceAlpha" values="0 0 0 0 0 0 0 0 0 0 0 0 0 0 0 0 0 0 127 0"/><feOffset dy="-2"/><feGaussianBlur stdDeviation="4"/><feColorMatrix values="0 0 0 0 0 0 0 0 0 0 0 0 0 0 0 0 0 0 0.1 0"/><feBlend in2="effect1_backgroundBlur" result="effect2_dropShadow"/><feBlend in="SourceGraphic" in2="effect2_dropShadow" result="shape"/><feColorMatrix in="SourceAlpha" values="0 0 0 0 0 0 0 0 0 0 0 0 0 0 0 0 0 0 127 0" result="hardAlpha"/><feOffset dy="-2"/><feGaussianBlur stdDeviation="3.5"/><feComposite in2="hardAlpha" operator="arithmetic" k2="-1" k3="1"/><feColorMatrix values="0 0 0 0 1 0 0 0 0 1 0 0 0 0 1 0 0 0 0.3 0"/><feBlend in2="shape" result="effect3_innerShadow"/></filter><filter id="filter3_f" x="17" y="10.204" width="35.721" height="43.461" filterUnits="userSpaceOnUse" color-interpolation-filters="sRGB"><feFlood flood-opacity="0" result="BackgroundImageFix"/><feBlend in="SourceGraphic" in2="BackgroundImageFix" result="shape"/><feGaussianBlur stdDeviation=".5" result="effect1_foregroundBlur"/></filter><filter id="filter4_bdi" x="24" y="14" width="22" height="34" filterUnits="userSpaceOnUse" color-interpolation-filters="sRGB"><feFlood flood-opacity="0" result="BackgroundImageFix"/><feGaussianBlur in="BackgroundImage" stdDeviation="5"/><feComposite in2="SourceAlpha" operator="in" result="effect1_backgroundBlur"/><feColorMatrix in="SourceAlpha" values="0 0 0 0 0 0 0 0 0 0 0 0 0 0 0 0 0 0 127 0"/><feOffset dy="-2"/><feGaussianBlur stdDeviation="4"/><feColorMatrix values="0 0 0 0 0 0 0 0 0 0 0 0 0 0 0 0 0 0 0.1 0"/><feBlend in2="effect1_backgroundBlur" result="effect2_dropShadow"/><feBlend in="SourceGraphic" in2="effect2_dropShadow" result="shape"/><feColorMatrix in="SourceAlpha" values="0 0 0 0 0 0 0 0 0 0 0 0 0 0 0 0 0 0 127 0" result="hardAlpha"/><feOffset dy="-2"/><feGaussianBlur stdDeviation="3.5"/><feComposite in2="hardAlpha" operator="arithmetic" k2="-1" k3="1"/><feColorMatrix values="0 0 0 0 1 0 0 0 0 1 0 0 0 0 1 0 0 0 0.3 0"/><feBlend in2="shape" result="effect3_innerShadow"/></filter><filter id="filter5_bdi" x="18" y="20" width="34" height="22" filterUnits="userSpaceOnUse" color-interpolation-filters="sRGB"><feFlood flood-opacity="0" result="BackgroundImageFix"/><feGaussianBlur in="BackgroundImage" stdDeviation="5"/><feComposite in2="SourceAlpha" operator="in" result="effect1_backgroundBlur"/><feColorMatrix in="SourceAlpha" values="0 0 0 0 0 0 0 0 0 0 0 0 0 0 0 0 0 0 127 0"/><feOffset dy="-2"/><feGaussianBlur stdDeviation="4"/><feColorMatrix values="0 0 0 0 0 0 0 0 0 0 0 0 0 0 0 0 0 0 0.1 0"/><feBlend in2="effect1_backgroundBlur" result="effect2_dropShadow"/><feBlend in="SourceGraphic" in2="effect2_dropShadow" result="shape"/><feColorMatrix in="SourceAlpha" values="0 0 0 0 0 0 0 0 0 0 0 0 0 0 0 0 0 0 127 0" result="hardAlpha"/><feOffset dy="-2"/><feGaussianBlur stdDeviation="3.5"/><feComposite in2="hardAlpha" operator="arithmetic" k2="-1" k3="1"/><feColorMatrix values="0 0 0 0 1 0 0 0 0 1 0 0 0 0 1 0 0 0 0.3 0"/><feBlend in2="shape" result="effect3_innerShadow"/></filter><linearGradient id="paint0_linear" x1="72.643" y1="29.5" x2="44.714" y2="29.5" gradientUnits="userSpaceOnUse"><stop stop-color="#0075FF"/><stop offset="1" stop-color="#5AC4FF"/></linearGradient><clipPath id="clip0"><path fill="#fff" d="M0 0h100v60H0z"/></clipPath></defs></svg>
